X: 36060
T: Scartaglen, The
R: polka
M: 2/4
K: Gmajor
|:G,2 G,>A,|B,D F2|GB, B,/A,/G,/A,/|B,A, A,B,/A,/|
G,2 G,>A,|B,D F2|GB, A,B,/A,/|G,2 G,2:|
|:B,D GA/G/|FE E/F/G/E/|DB, B,/A,/G,/A,/|B,A, A,2|
B,D GA/G/|FE E/F/G/F/|DB, A,B,/A,/|1 G,2 G,2:|2 G,2 G,D||
|:[G2G,2] [D2A2]|[D3B3] D|[G2G,2] [D2A2]|[D3B3] D|
GE E/F/G/E/|DB, G>E|DB, A,B,/A,/|1 G,2 G,D:|2 G,4||

